X: 13800
T: Four Courts
R: reel
M: 4/4
K: Amajor
|:c2Ac B2Ad|c2 Ac BcdB|c2Ac B2Ac|d2fd BcdB:|
|:ceeg f2df|e2cA BcdB|ceeg (3fga ec|d2fd BcdB:|
a2eg a2eg|a2ec BcdB|a2eg a2ec|d2fd BcdB|
agbg agbg|agec BcdB|agbg agec|d2fd BcdB||
|:eAcA eAcA|eAcA BcdB|eAcA eAcA|d2fd BcdB:|

